icons/1_Primary/Populi.svg

<svg width="1024" height="1024" viewBox="0 0 1024 1024" fill="none" xmlns="http://www.w3.org/2000/svg">
<g clip-path="url(#clip0_2_3177)">
<path d="M512 1024C794.77 1024 1024 794.77 1024 512C1024 229.23 794.77 0 512 0C229.23 0 0 229.23 0 512C0 794.77 229.23 1024 512 1024Z" fill="#9ABEFF"/>
<path d="M482.3 719.47C479.92 751.56 441.69 766.22 418.3 744.04C398.3 724.63 407.21 688.77 434.15 681.04C443.26 678.27 444.85 678.27 454.36 680.84C471.2 685 483.68 702.23 482.3 719.47ZM670.9 392.2C687.34 390.62 703.39 372.2 703.39 354.76C703.39 329.76 676.45 310.58 653.27 318.9C645.628 321.617 639.066 326.729 634.562 333.475C630.058 340.22 627.851 348.24 628.27 356.34C629.29 378.53 648.31 394.37 670.9 392.2ZM346.59 594.46C350.75 579.21 340.84 558.4 326.38 551.67C316.28 547.11 302.21 546.92 294.29 551.08C264.57 566.33 264.38 604.37 293.7 619.43C314.1 629.93 340.25 617.44 346.59 594.46ZM353.72 529.68C409.19 549.09 421.27 552.86 422.66 550.48C425.04 546.72 438.11 507.69 437.32 507.09C437.12 506.69 428.8 503.72 419.09 500.35C347 475 292.71 456 283.79 452.62C278.04 450.62 272.5 448.86 271.71 448.86C270.71 448.86 266.56 458.96 262 471.05C253.28 495.81 252.89 494.23 268.74 499.38C274.09 501.16 280.23 503.38 282.41 504.38C284.58 505.12 316.68 516.61 353.72 529.68ZM341.64 432.81C365.81 423.7 373.73 392.99 357.29 373.38C347.58 361.89 328.37 356.54 315.29 361.89C308.12 364.668 301.946 369.531 297.567 375.852C293.187 382.173 290.802 389.661 290.72 397.35C290.13 423.3 317.07 442.12 341.64 432.81ZM389.19 367C409.99 427.42 422.67 463.68 423.26 464.47C424.05 465.47 466.05 451 468.03 449.02C468.62 448.43 462.09 427.23 453.37 402.27C444.65 377.11 434.15 346.8 429.99 334.91C425.83 322.83 419.89 305.79 416.72 297.07L411.17 280.83L388.39 289C375.91 293.36 365.39 297.12 365.21 297.12C365.01 297.32 373.33 322.12 377.1 331.99C377.7 333.56 383 349.4 389.19 367ZM572.24 590.11C566.69 589.91 540.15 587.34 533.81 586.35C528.26 585.56 527.07 585.95 526.88 588.93C526.8 591.119 526.603 593.302 526.29 595.47C525.89 597.05 524.9 604.19 524.11 611.32C523.32 618.45 522.53 626.38 522.11 629.15C521.91 631.92 520.92 639.85 520.33 646.98C519.54 654.11 518.55 662.43 518.15 665.8C516.57 676.3 515.38 685.41 514.15 697.5C513.56 704.04 512.57 711.96 512.15 715.33C508.15 746.83 507.15 760.7 508.58 761.89C509.37 762.68 516.5 764.07 524.03 764.66C531.76 765.45 540.47 766.44 543.64 767.04C554.73 769.04 556.52 768.62 556.32 764.46C556.12 761.09 557.9 744.05 559.69 732.17C560.88 723.06 562.69 708.6 565.63 680.66C566.22 674.72 567.21 666.59 567.63 662.83C568.22 659.07 569.02 651.34 569.63 645.99C570.22 640.44 571.02 632.91 571.63 629.15C576.2 591.69 576.2 590.3 572.24 590.11ZM615.24 512.25L597.81 529.68L580.57 546.92L643.57 609.92L706.57 672.92L723.21 655.92C732.52 646.61 740.21 638.68 740.45 638.29C740.65 638.09 712.52 609.56 678.05 575.09L615.24 512.25ZM619.4 657.86C588.1 668.56 587.11 714.12 617.62 727.79C623.325 730.368 629.587 731.469 635.829 730.993C642.071 730.517 648.093 728.479 653.342 725.066C658.59 721.654 662.896 716.976 665.862 711.463C668.829 705.95 670.362 699.78 670.32 693.52C670.3 667 644.94 649.14 619.39 657.86H619.4ZM768 531.07C767.41 518.99 764.83 512.45 757.7 505.32C747 494.62 726.99 491.06 714.31 497.79C693.71 508.69 686.77 532.06 698.86 551.28C706.78 564.36 718.67 570.28 733.33 569.11C754.69 567.32 768.76 551.87 768 531.07ZM390.37 613.48C350.55 638.48 316.87 659.64 315.49 660.48C313.49 661.67 315.89 667.22 325.4 682.27C332.33 693.36 338.67 702.48 339.47 702.48C340.47 702.48 481.91 615.31 489.24 610.16C490.03 609.57 471.01 578.46 466.06 572.52C462.68 568.12 462.49 568.31 390.37 613.48ZM583.93 479.17C584.72 480.56 608.93 479.37 618.8 477.59C620.8 477 627.91 476.2 634.65 475.59C646.14 474.59 650.89 474.01 669.32 471.59C673.32 471.19 681.6 470.2 687.55 469.59C693.5 468.98 701.62 468.01 705.38 467.59C709.14 467.17 721.23 465.81 732.12 464.59C762.63 461.42 760.85 462.21 759.86 451.12C758.86 442.01 756.1 420.22 755.11 414.47C754.91 412.89 745.4 413.08 730.74 415.26C725.74 416.05 714.74 417.26 706.37 418.03C698.05 418.62 689.73 419.61 687.75 420.03C685.97 420.43 677.84 421.22 669.92 422.03C662 422.62 654.07 423.61 652.09 424.03C650.31 424.43 642.58 425.22 635.09 426.03C627.36 426.62 619.09 427.61 616.27 428.03C603.99 429.81 585.17 431.79 581.8 431.6C578.63 431.6 578.23 432.6 579.42 440.71C580.01 445.71 581.2 455.96 581.8 463.71C582.34 471.24 583.33 478.37 583.93 479.17ZM536 434.59C539 431.42 626.14 292.94 627.53 289.18C628.32 286.8 619.8 280.46 594.45 265.18L587.52 260.82L584.35 266.17C582.57 269.17 561.35 302.82 537.35 341.25C513.18 379.48 493.35 411.38 493.35 411.97C493.35 412.76 495.35 414.15 497.91 415.14C500.29 416.33 509.4 421.68 517.91 427.22C530.63 435.18 534.2 436.77 536 434.59ZM484.86 333C486.052 333.09 487.248 333.09 488.44 333H488.76C498.853 332.491 508.347 328.059 515.218 320.649C522.089 313.238 525.792 303.436 525.538 293.334C525.283 283.231 521.091 273.628 513.856 266.573C506.621 259.518 496.916 255.569 486.81 255.569C476.704 255.569 466.999 259.518 459.764 266.573C452.529 273.628 448.337 283.231 448.082 293.334C447.828 303.436 451.531 313.238 458.402 320.649C465.273 328.059 474.767 332.491 484.86 333Z" fill="white"/>
</g>
<defs>
<clipPath id="clip0_2_3177">
<rect width="1024" height="1024" fill="white"/>
</clipPath>
</defs>
</svg>

<svg xmlns="http://www.w3.org/2000/svg" width="1024" height="1024" fill="none">
   <g clip-path="url(#a)">
      <path fill="#9ABEFF" d="M512 1024c282.77 0 512-229.23 512-512S794.77 0 512 0 0 229.23 0 512s229.23 512 512 512Z"/>
      <path fill="#fff" d="M482.3 719.47c-2.38 32.09-40.61 46.75-64 24.57-20-19.41-11.09-55.27 15.85-63 9.11-2.77 10.7-2.77 20.21-.2 16.84 4.16 29.32 21.39 27.94 38.63ZM670.9 392.2c16.44-1.58 32.49-20 32.49-37.44 0-25-26.94-44.18-50.12-35.86a37.668 37.668 0 0 0-25 37.44c1.02 22.19 20.04 38.03 42.63 35.86ZM346.59 594.46c4.16-15.25-5.75-36.06-20.21-42.79-10.1-4.56-24.17-4.75-32.09-.59-29.72 15.25-29.91 53.29-.59 68.35 20.4 10.5 46.55-1.99 52.89-24.97Zm7.13-64.78c55.47 19.41 67.55 23.18 68.94 20.8 2.38-3.76 15.45-42.79 14.66-43.39-.2-.4-8.52-3.37-18.23-6.74C347 475 292.71 456 283.79 452.62c-5.75-2-11.29-3.76-12.08-3.76-1 0-5.15 10.1-9.71 22.19-8.72 24.76-9.11 23.18 6.74 28.33 5.35 1.78 11.49 4 13.67 5 2.17.74 34.27 12.23 71.31 25.3Zm-12.08-96.87c24.17-9.11 32.09-39.82 15.65-59.43-9.71-11.49-28.92-16.84-42-11.49a38.467 38.467 0 0 0-24.57 35.46c-.59 25.95 26.35 44.77 50.92 35.46ZM389.19 367c20.8 60.42 33.48 96.68 34.07 97.47.79 1 42.79-13.47 44.77-15.45.59-.59-5.94-21.79-14.66-46.75-8.72-25.16-19.22-55.47-23.38-67.36-4.16-12.08-10.1-29.12-13.27-37.84l-5.55-16.24-22.78 8.17c-12.48 4.36-23 8.12-23.18 8.12-.2.2 8.12 25 11.89 34.87.6 1.57 5.9 17.41 12.09 35.01Zm183.05 223.11c-5.55-.2-32.09-2.77-38.43-3.76-5.55-.79-6.74-.4-6.93 2.58a61.483 61.483 0 0 1-.59 6.54c-.4 1.58-1.39 8.72-2.18 15.85-.79 7.13-1.58 15.06-2 17.83-.2 2.77-1.19 10.7-1.78 17.83-.79 7.13-1.78 15.45-2.18 18.82-1.58 10.5-2.77 19.61-4 31.7-.59 6.54-1.58 14.46-2 17.83-4 31.5-5 45.37-3.57 46.56.79.79 7.92 2.18 15.45 2.77 7.73.79 16.44 1.78 19.61 2.38 11.09 2 12.88 1.58 12.68-2.58-.2-3.37 1.58-20.41 3.37-32.29 1.19-9.11 3-23.57 5.94-51.51.59-5.94 1.58-14.07 2-17.83.59-3.76 1.39-11.49 2-16.84.59-5.55 1.39-13.08 2-16.84 4.57-37.46 4.57-38.85.61-39.04Zm43-77.86-17.43 17.43-17.24 17.24 63 63 63 63 16.64-17c9.31-9.31 17-17.24 17.24-17.63.2-.2-27.93-28.73-62.4-63.2l-62.81-62.84Zm4.16 145.61c-31.3 10.7-32.29 56.26-1.78 69.93a37.327 37.327 0 0 0 35.722-2.724 37.333 37.333 0 0 0 16.978-31.546c-.02-26.52-25.38-44.38-50.93-35.66h.01ZM768 531.07c-.59-12.08-3.17-18.62-10.3-25.75-10.7-10.7-30.71-14.26-43.39-7.53-20.6 10.9-27.54 34.27-15.45 53.49 7.92 13.08 19.81 19 34.47 17.83 21.36-1.79 35.43-17.24 34.67-38.04Zm-377.63 82.41c-39.82 25-73.5 46.16-74.88 47-2 1.19.4 6.74 9.91 21.79 6.93 11.09 13.27 20.21 14.07 20.21 1 0 142.44-87.17 149.77-92.32.79-.59-18.23-31.7-23.18-37.64-3.38-4.4-3.57-4.21-75.69 40.96Zm193.56-134.31c.79 1.39 25 .2 34.87-1.58 2-.59 9.11-1.39 15.85-2 11.49-1 16.24-1.58 34.67-4 4-.4 12.28-1.39 18.23-2 5.95-.61 14.07-1.58 17.83-2 3.76-.42 15.85-1.78 26.74-3 30.51-3.17 28.73-2.38 27.74-13.47-1-9.11-3.76-30.9-4.75-36.65-.2-1.58-9.71-1.39-24.37.79-5 .79-16 2-24.37 2.77-8.32.59-16.64 1.58-18.62 2-1.78.4-9.91 1.19-17.83 2-7.92.59-15.85 1.58-17.83 2-1.78.4-9.51 1.19-17 2-7.73.59-16 1.58-18.82 2-12.28 1.78-31.1 3.76-34.47 3.57-3.17 0-3.57 1-2.38 9.11.59 5 1.78 15.25 2.38 23 .54 7.53 1.53 14.66 2.13 15.46ZM536 434.59c3-3.17 90.14-141.65 91.53-145.41.79-2.38-7.73-8.72-33.08-24l-6.93-4.36-3.17 5.35c-1.78 3-23 36.65-47 75.08-24.17 38.23-44 70.13-44 70.72 0 .79 2 2.18 4.56 3.17 2.38 1.19 11.49 6.54 20 12.08 12.72 7.96 16.29 9.55 18.09 7.37ZM484.86 333c1.192.09 2.388.09 3.58 0h.32a38.742 38.742 0 0 0 36.778-39.666 38.743 38.743 0 0 0-38.728-37.765A38.74 38.74 0 0 0 484.86 333Z"/>
   </g>
   <defs>
      <clipPath id="a">
         <path fill="#fff" d="M0 0h1024v1024H0z"/>
      </clipPath>
   </defs>
</svg>
